!!!!SEGMENT: Ver3007-Passer_mio_solitario.krn
!!!id: Ver3007
!!!AGN: Madrigal
!!!voices: 4
!!!COM: Philippe Verdelot
!!!OTL: Passer mio solitario
**kern	**kern	**kern	**kern
*part4	*part3	*part2	*part1
*staff4	*staff3	*staff2	*staff1
*I"Bassus	*I"Tenor	*I"Altus	*I"Superius
*I'B	*I'T	*I'A	*I'S
*clefF4	*clefGv2	*clefGv2	*clefG2
*k[b-]	*k[b-]	*k[b-]	*k[b-]
*F:	*F:	*F:	*F:
*M3/1	*M3/1	*M3/1	*M3/1
*met(O)	*met(O)	*met(O)	*met(O)
1F	2r	2r	1c
.	1F	1A	.
2D	.	.	2d
2G	2G	2B-y	2e
2F	2A	2c	2f
2B-y	2B-y	2d	2g
=1	=1	=1	=1
2A	2c	2e	2.a
2D	2.d	2.f	.
.	.	.	4g
2.B-y	.	.	2f
.	4c	4e	.
.	2B-y	2d	2f
4A	.	.	.
2G	2B-y	2d	1g
2C	[2c	[2e	.
=2	=2	=2	=2
2r	2c]	2e]	1e
2C	2G	2c	.
2C	4r	2r	2r
.	4.c	.	.
2C	.	2c	2e
.	8B-yL	.	.
.	8A	.	.
.	8GJ	.	.
2D	8FL	2A	2d
.	8G	.	.
.	8A	.	.
.	8FJ	.	.
2BB-y	4G	2B-y	2d
.	[4F	.	.
=3	=3	=3	=3
2C	4F]	2G	2c
.	8EL	.	.
.	8DJ	.	.
2C	2E	2c	2g
2.c	2F	2.A	2.a
.	2F	.	.
4B-y	.	4G	4a
2.A	2.c	2F	2a
.	.	2F	2a
4G	4B-y	.	.
=4	=4	=4	=4
1F	4A	1c	1a
.	4F	.	.
.	2.f	.	.
2C	.	0c	2g
.	8eL	.	.
.	8dJ	.	.
2C	2e	.	2g
2.F	1f	.	2.a
4G	.	.	4g
=5	=5	=5	=5
4A	1r	1r	2f
4B-y	.	.	.
1c	.	.	2e
.	2r	1G	1d
2BnXi	2d	.	.
1c	2.e-X	2.c	1c
.	4d	4d	.
=6	=6	=6	=6
1r	2c	4e	1r
.	.	4f	.
.	2B-y	2.g	.
1D	1A	.	2r
.	.	8f#iL	.
.	.	8eJ	.
.	.	2f#i	2d
2E-X	1G	[1g	2c
2E-i	.	.	2B-y
=7	=7	=7	=7
1E-i	2r	1g]	1c
.	2G	.	.
1D	2A	2r	1d
.	2A	2f	.
2r	1A	2e	2r
2D	.	2d	2f
=8	=8	=8	=8
2E	2G	4B-y	2g
.	.	2c	.
2C	2c	.	2g
.	.	4e-i	.
1G	2B-y	4d	1g
.	.	4G	.
.	2G	8B-yL	.
.	.	8A	.
.	.	8B-y	.
.	.	8cJ	.
1D	2B-y	1d	1f
.	4A	.	.
.	[4A	.	.
=9	=9	=9	=9
1F	8AL]	2c	1a
.	8G	.	.
.	8A	.	.
.	8B-yJ	.	.
.	4c	2f	.
.	4.d	.	.
1G	.	1d	1g
.	8cL	.	.
.	8B-y	.	.
.	8AJ	.	.
.	2B-y	.	.
1C	2c	1e	2g
.	4r	.	2c
.	4c	.	.
=10	=10	=10	=10
2r	4B-y	2r	4d
.	4A	.	2f
2C	2G	2c	.
.	.	.	4e
4D	2F	4B-y	4f
2F	.	4A	4c
.	2c	2G	4d
4E	.	.	4e
2D	2d	2F	4.f
.	.	.	8g
2C	2e	2c	4a
.	.	.	[4g
=11	=11	=11	=11
2D	4.f	2A	4g]
.	.	.	2f
.	8e	.	.
2BB-y	2d	2B-y	.
.	.	.	8eL
.	.	.	8dJ
2C	2c	2G	2e
2D	4B-y	8FL	2.f
.	.	8G	.
.	2A	8A	.
.	.	8B-yJ	.
1C	.	1c	.
.	8GL	.	8eL
.	8FJ	.	8dJ
.	2G	.	2e
=12	=12	=12	=12
0F	0A	0c	0f
1r	1r	1r	1r
=13	=13	=13	=13
1F	2r	1A	1c
.	1F	.	.
2D	.	2B-y	2d
2C	2G	2c	2e
4F	2A	2d	2f
4D	.	.	.
2G	2B-y	2e	2g
=14	=14	=14	=14
2F	2c	2.f	2.a
2D	2.d	.	.
.	.	4e	4g
2D	.	1d	2f
.	4c	.	.
2D	2B-y	.	2f
2G	2B-y	2d	1g
2C	[2c	[2e	.
=15	=15	=15	=15
2r	2c]	2e]	1e
2C	2G	2c	.
2C	4r	2r	2r
.	4.c	.	.
2C	.	2c	2e
.	8B-yL	.	.
.	8A	.	.
.	8GJ	.	.
2D	8FL	2A	2d
.	8G	.	.
.	8A	.	.
.	8FJ	.	.
2BB-y	4G	2B-y	2d
.	[4F	.	.
=16	=16	=16	=16
2C	4F]	2G	2c
.	8EL	.	.
.	8DJ	.	.
2C	2E	2c	2g
2.c	2F	2.A	2.a
.	2F	.	.
4B-y	.	4G	4a
2.A	2.c	2F	2a
.	.	2F	2a
4G	4B-y	.	.
=17	=17	=17	=17
1F	4A	1c	1a
.	4F	.	.
.	2.f	.	.
1C	.	1c	1g
.	8eL	.	.
.	8dJ	.	.
.	2e	.	.
1F	2f	2r	2r
.	2f	2c	2a
=18	=18	=18	=18
2G	2d	2B-y	2g
2C	2c	2G	2e
1F	1c	2A	2.f
.	.	2A	.
.	.	.	2f
2BB-y	2d	2r	.
.	.	.	2g
2C	2e	2c	.
.	.	.	[4a
=19	=19	=19	=19
2D	2f	2A	4a]
.	.	.	2f
2BB-y	2d	2B-y	.
.	.	.	4.g
2C	4.c	2G	.
.	.	.	8f
.	.	.	4e
.	8B-y	.	.
2D	2A	2F	2d
2E	4G	2G	4c
.	2B-y	.	4B-y
2C	.	2E	2c
.	4A	.	.
=20	=20	=20	=20
4BB-y	4B-y	4F	4d
4BB-y	4d	4B-y	4f
4C	4c	4G	4e
4D	4A	4F	4f
4BB-y	4B-y	4d	4f
4C	4G	4c	4e
4D	4F	4A	4f
4E	4G	2c	4e
4F	4A	.	4c
4D	4B-y	4B-y	2f
2C	2c	4A	.
.	.	4G	4e
=21	=21	=21	=21
2BB-y	2d	2B-y	2f
4r	4r	4r	4r
4BB-y	4d	4B-y	4f
2C	2c	2G	2e
2D	2A	2F	2f
2BB-y	2B-y	2d	2f
2C	2G	2c	2e
=22	=22	=22	=22
2D	2F	4A	2f
.	.	2B-y	.
2E	2G	.	2e
.	.	2c	.
2F	2A	.	2c
.	.	2F	.
2BB-y	2B-y	.	2d
.	.	4.G	.
1C	1G	.	1c
.	.	8FL	.
.	.	8E	.
.	.	8DJ	.
.	.	2E	.
=23	=23	=23	=23
2F	2A	2F	2c
4r	4r	4r	4r
4F	4A	4c	4f
2F	2A	2c	2f
2F	2A	2c	2f
2BB-y	2B-y	2d	2f
2BB-y	2B-y	2d	2f
=24	=24	=24	=24
1E-X	1B-y	1e-X	1g
2BB-y	1B-y	1d	0f
4r	.	.	.
4BB-y	.	.	.
8BB-yL	4r	1r	.
8C	.	.	.
8D	4F	.	.
8EJ	.	.	.
4.F	8FL	.	.
.	8G	.	.
.	8A	.	.
8G	8B-yJ	.	.
=25	=25	=25	=25
4A	4c	2r	1r
2B-y	4d	.	.
.	2c	4r	.
4A	.	4c	.
2B-y	2B-y	8dL	4r
.	.	8c	.
.	.	8d	4B-y
.	.	8eJ	.
4r	2d	4.f	8B-yL
.	.	.	8c
4BB-y	.	.	8d
.	.	8e	8eJ
8BB-yL	4d	4d	2.f
8C	.	.	.
8D	4d	8cL	.
8EJ	.	8B-yJ	.
4F	[2c	4A	.
4G	.	4G	4g
=26	=26	=26	=26
2F	2c]	2A	2f
2BB-y	2B-y	2F	2d
4r	4r	4r	4r
4BB-y	4d	4B-y	4f
4BB-y	4d	4B-y	4f
4BB-y	4d	4B-y	4f
2C	2c	2G	2e
2C	2c	2G	2e
=27	=27	=27	=27
2D	2A	2F	2d
2BB-y	2d	2B-y	2f
2C	2c	2G	2e
2D	4B-y	2F	2d
.	4A	.	.
1E-i	1G	1G	4c
.	.	.	4B-y
.	.	.	2c
=28	=28	=28	=28
1D	1F	1A	1d
2r	2r	2r	2r
2C	2G	2c	2e
2C	2G	2c	2e
2C	2G	2c	2e
=29	=29	=29	=29
2BB-y	2B-y	2d	2f
2BB-y	2B-y	2d	2f
4C	4G	4c	4e
4c	4F	4A	4a
4B-y	4G	4B-y	4g
4A	4A	4c	4f
2G	2B-y	4d	2g
.	.	4e	.
2F	[2A	2f	2c
=30	=30	=30	=30
2r	2A]	2c	1r
2F	2r	4.f	.
.	.	8e	.
4.B-y	1r	4d	1r
.	.	4d	.
8A	.	.	.
4G	.	2.e	.
4G	.	.	.
2A	2r	.	2c
.	.	2A	.
2D	2F	.	4.f
.	.	[4d	.
.	.	.	8e
=31	=31	=31	=31
4.G	4.B-y	4d]	4d
.	.	4B-y	4d
8F	8A	.	.
2E	4G	2c	2e
.	4G	.	.
2D	2A	2d	2f
4r	2F	4r	4.f
4D	.	4d	.
.	.	.	8e
4BB-y	4.B-y	4f	2d
4BB-y	.	8eL	.
.	8A	8dJ	.
2C	2G	2e	2c
=32	=32	=32	=32
2F	2F	2f	2r
2r	2r	4r	2c
.	.	2F	.
2BB-y	1r	.	2d
.	.	2G	.
2C	.	.	2e
.	.	2A	.
2D	1r	.	2f
.	.	2B-y	.
2E	.	.	2g
.	.	[4c	.
=33	=33	=33	=33
2F	2r	4c]	2.a
.	.	2d	.
2D	2F	.	.
.	.	4f	4a
2E	2G	2e	2g
2F	2A	2c	2.f
2D	2B-y	2d	.
.	.	.	8eL
.	.	.	8dJ
2C	2c	2G	2e
=34	=34	=34	=34
4.BB-y	2.d	2r	0.f
8C	.	.	.
4.D	.	2B-y	.
.	4d	.	.
8E	.	.	.
2F	2c	2A	.
2.BB-y	4.B-y	4.d	.
.	8c	8c	.
.	4d	4B-y	.
4AA	2c	4c	.
2BB-y	.	2d	.
.	[4B-y	.	.
=35	=35	=35	=35
1F	4B-]	2c	2r
.	8AL	.	.
.	8GJ	.	.
.	2A	4r	2c
.	.	2F	.
2BB-y	1r	.	2d
.	.	2G	.
2C	.	.	2e
.	.	2A	.
2D	1r	.	2f
.	.	2B-y	.
2E	.	.	2g
.	.	[4c	.
=36	=36	=36	=36
2F	2r	4c]	2.a
.	.	2d	.
2D	2F	.	.
.	.	4f	4a
2E	2G	2e	2g
2F	2A	2c	2.f
2D	2B-y	2d	.
.	.	.	8eL
.	.	.	8dJ
2C	2c	2G	2e
=37	=37	=37	=37
4.BB-y	2.d	2r	[0.fl
8C	.	.	.
4.D	.	2B-y	.
.	4d	.	.
8E	.	.	.
2F	2c	2A	.
2.BB-y	4.B-y	4.d	.
.	8c	8c	.
.	2d	4B-y	.
4AA	.	4c	.
2BB-y	4c	2d	.
.	[4B-y	.	.
=38	=38	=38	=38
[0.Fl	4B-]	[0.cl	0.f_
.	8AL	.	.
.	8GJ	.	.
.	2A	.	.
.	[0Al	.	.
=39	=39	=39	=39
00F]	00A]	00c]	00f]
==	==	==	==
*-	*-	*-	*-
!!!system-decoration: [*]
!!!RDF**kern: i = editorial accidental
!!!RDF**kern: l = terminal long
!!!ENC: Benjamin Ory
!!!END: 2024/4/1
!!!EED: Benjamin Ory
!!!EEV: 2024/04/01
!!!YEC: Copyright 2024 Benjamin Ory, All Rights Reserved
!!!ONB: Translated from MusicXML on 2024/04/01
